packages/xm_dkfz_net_site/Resources/Public/Icons/file.svg

<svg width="100%" height="100%" viewBox="0 0 24 24" version="1.1" xmlns="http://www.w3.org/2000/svg" xmlns:xlink="http://www.w3.org/1999/xlink" xml:space="preserve" xmlns:serif="http://www.serif.com/" style="fill-rule:evenodd;clip-rule:evenodd;stroke-linejoin:round;stroke-miterlimit:2;">
    <path d="M21.818,8.7L21.818,8.727L21.818,20.727C21.818,22.535 20.353,24 18.545,24L5.455,24C3.647,24 2.182,22.535 2.182,20.727L2.182,3.273C2.182,1.465 3.647,0 5.455,0L13.091,0L13.118,0C13.307,0.005 13.485,0.058 13.638,0.147L13.657,0.158C13.731,0.203 13.8,0.257 13.862,0.32L21.499,7.956C21.561,8.018 21.615,8.087 21.66,8.161L21.671,8.18C21.76,8.334 21.813,8.511 21.818,8.7ZM12,2.182L5.455,2.182C4.852,2.182 4.364,2.67 4.364,3.273C4.364,3.273 4.364,20.727 4.364,20.727C4.364,21.33 4.852,21.818 5.455,21.818C5.455,21.818 18.545,21.818 18.545,21.818C19.148,21.818 19.636,21.33 19.636,20.727L19.636,9.818L13.091,9.818C12.488,9.818 12,9.33 12,8.727L12,2.182ZM18.094,7.636L14.182,3.725L14.182,7.636L18.094,7.636Z"/>
</svg>

<svg xmlns="http://www.w3.org/2000/svg" xml:space="preserve" style="fill-rule:evenodd;clip-rule:evenodd;stroke-linejoin:round;stroke-miterlimit:2" viewBox="0 0 24 24"><path d="M21.82 8.7v12.03c0 1.8-1.47 3.27-3.27 3.27H5.45a3.27 3.27 0 0 1-3.27-3.27V3.27C2.18 1.47 3.65 0 5.45 0h7.67c.19 0 .37.06.52.15h.02c.07.05.14.1.2.17l7.64 7.64.16.2.01.02c.09.15.14.33.15.52ZM12 2.18H5.46c-.6 0-1.1.49-1.1 1.1v17.45c0 .6.5 1.09 1.1 1.09h13.09c.6 0 1.09-.49 1.09-1.1V9.83h-6.55c-.6 0-1.09-.49-1.09-1.1V2.19Zm6.1 5.46-3.92-3.91v3.9h3.91Z"/></svg>
